X:23
T:Winder's Hornpipe
C:from Edward Winder's ms2
M:3/2
L:1/8
K:F
A4c4d2dc|d2g2g2G2BcdB|A4c4d2dc|e2a2a2e2BcdB:|
|:A2a2a2gf e2dc|B2g2g2G2BcdB|A2a2a2gf e2dc|e2a2a2A2BcdB:|
A2B2D2A2c4|d2g2g2G2BcdB|A2B2D2A2c4|e2a2a2A2BcdB:|
%%vskip 1cm
